!!!COM: Bach, Johann Sebastian
!!!OPR: Joh. Seb. Bachs vierstimmige Choralgesänge
!!!XEN: Four-part Chorales
!!!OTL: 114. In allen meinen Taten
!!!SCT: BWV 367
!!!SCA: Thematisch-systematisches Verzeichnis der musikalischen Werke Johann Sebastian Bach: Bach-Werke-Verzeichnis (Schmieder)
!!!YOR: Bach Gesellschaft Edition xxxix
!!!ENC: Steven Rasmussen
!!!CDT: 1685/3//-1750/7/28/
!!!OCY: Deutschland
!!!YEC: Copyright (c) 1994, 2000 Center for Computer Assisted Research in the Humanities
!!!YEM: Rights to all derivative editions reserved
!!!YEN: United States of America
**kern	**silbe	**kern	**kern	**kern
*I:[SOPRANO]	*I:[SOPRANO]	*I:[ALTO]	*I:[TENORE]	*I:[BASSO]
*clefG2	*	*clefG2	*clefGv2	*clefF4
*k[]	*	*k[]	*k[]	*k[]
*C:	*	*C:	*C:	*C:
*M4/4	*	*M4/4	*M4/4	*M4/4
4g	In	4e	4c	4C
=1	=1	=1	=1	=1
4cc	al-	8eL	4c	8CL
.	.	8fJ	.	8DJ
4cc	-len	4g	4c	4E
4dd	mei-	4a	4c	4F
4dd	-nen	4g	4B	4G
=2	=2	=2	=2	=2
2ee	Ta-	2g	2c	8CL
.	.	.	.	8D
.	.	.	.	8E
.	.	.	.	8FJ
4dd;	-ten	4g;	4B;	4G;
4dd	lass'	4g	4B	4GG
=3	=3	=3	=3	=3
4cc	ich	8gL	4c	4AA
.	.	8f#J	.	.
4b	den	4g	4d	4BB
4a	HÃ¶ch-	4g	4e	4C
4a	-sten	4f#	4d	4D
=4	=4	=4	=4	=4
2b	ra-	2g	2d	2G
4b;	-ten,	4g;	4d;	4GG;
4g	der	4d	4B	8GL
.	.	.	.	8FJ
=5	=5	=5	=5	=5
4g	Al-	4e	4c	8EL
.	.	.	.	8DJ
4g	-les	4e	8cL	8CL
.	.	.	8dJ	8BBJ
4cc	kann	4a	4e	8AAL
.	.	.	.	8BBJ
4cc	und	4a	4e	8CL
.	.	.	.	8DJ
=6	=6	=6	=6	=6
2b;	hat;	2g#;	2e;	2E;
4r	.	4r	4r	4r
4b	er	4gn	4e	8EL
.	.	.	.	8DJ
=7	=7	=7	=7	=7
4ee	muss	4g	8eL	8CL
.	.	.	8dJ	8DJ
4ee	zu	4g	8cL	8EL
.	.	.	8BJ	8CJ
4cc	al-	4f	8AL	8FL
.	.	.	8BJ	8GJ
4cc	-len	4f	8cL	8AL
.	.	.	8AJ	8FJ
=8	=8	=8	=8	=8
2dd	Din-	8f#L	4A	8DL
.	.	8g	.	8E
.	.	8a	4d	8F#
.	.	8f#J	.	8DJ
4b;	-gen,	4g;	4d;	4G;
4b	soll's	4g	4d	4GG
=9	=9	=9	=9	=9
4cc	an-	4g	4e	8CL
.	.	.	.	8DJ
4cc	-ders	4g	4e	8EL
.	.	.	.	8CJ
4a	wohl	4f#	4e	8DL
.	.	.	.	8EJ
4a	ge-	4f#	4d	8F#L
.	.	.	.	8DJ
=10	=10	=10	=10	=10
2b	-lin-	4f#	8d#L	8BBL
.	.	.	8e	8C#
.	.	4B	8f#	8D#
.	.	.	8d#J	8BBJ
4g;	-gen,	4B;	4e;	4E;
4g	selbst	4B	4dn	8GL
.	.	.	.	8FJ
=11	=11	=11	=11	=11
4cc	ge-	4c	4G	8EL
.	.	.	.	8FJ
4dd	-ben	4f	4B	8EL
.	.	.	.	8DJ
4ee	Rat	8eL	4c	4C
.	.	8fJ	.	.
4dd	und	8gL	4B	4G
.	.	8fJ	.	.
=12	=12	=12	=12	=12
2.cc;	Tat.	2.e;	2.G;	2.C;
==|!	==|!	==|!	==|!	==|!
*-	*-	*-	*-	*-
!!!RWG: Key is interpreted using the Humdrum key tool.
!!!END: 1994/07/13
!!!EMD: Converted from MuseData to Humdrum Dec 19, 2000, by Andreas Kornstaedt using muse2kern.
!!!EED: Craig Stuart Sapp
!!!EEV: 2024/03/31
!!!ONB: Some non-unicode characters
